fs/clipboard_24_regular.svg

<svg viewBox="0 0 24 24" fill="none" xmlns="http://www.w3.org/2000/svg" height="1em" width="1em">
  <path d="M13.75 2C14.9409 2 15.9156 2.92516 15.9948 4.09595L16 4.25C16 4.16531 15.9953 4.0817 15.9862 3.99944L17.75 4C18.9926 4 20 5.00736 20 6.25V19.75C20 20.9926 18.9926 22 17.75 22H6.25C5.00736 22 4 20.9926 4 19.75V6.25C4 5.00736 5.00736 4 6.25 4L8.01379 3.99944C8.00733 4.05774 8.0031 4.11671 8.00119 4.17626L8 4.25C8 3.00736 9.00736 2 10.25 2H13.75ZM13.75 6.5H10.25C9.45595 6.5 8.75797 6.08867 8.35751 5.46746L8.37902 5.5002L6.25 5.5C5.83579 5.5 5.5 5.83579 5.5 6.25V19.75C5.5 20.1642 5.83579 20.5 6.25 20.5H17.75C18.1642 20.5 18.5 20.1642 18.5 19.75V6.25C18.5 5.83579 18.1642 5.5 17.75 5.5L15.621 5.5002L15.6425 5.46746C15.242 6.08867 14.5441 6.5 13.75 6.5ZM13.75 3.5H10.25C9.83579 3.5 9.5 3.83579 9.5 4.25C9.5 4.66421 9.83579 5 10.25 5H13.75C14.1642 5 14.5 4.66421 14.5 4.25C14.5 3.83579 14.1642 3.5 13.75 3.5Z" fill="#212121"/>
</svg>

<svg viewBox="0 0 24 24" fill="none" xmlns="http://www.w3.org/2000/svg" height="1em" width="1em">
  <path d="M13.75 2a2.25 2.25 0 0 1 2.245 2.096L16 4.25c0-.085-.005-.168-.014-.25h1.764A2.25 2.25 0 0 1 20 6.25v13.5A2.25 2.25 0 0 1 17.75 22H6.25A2.25 2.25 0 0 1 4 19.75V6.25A2.25 2.25 0 0 1 6.25 4h1.764c-.007.058-.01.117-.013.176L8 4.25A2.25 2.25 0 0 1 10.25 2h3.5Zm0 4.5h-3.5a2.248 2.248 0 0 1-1.892-1.033l.021.033H6.25a.75.75 0 0 0-.75.75v13.5c0 .414.336.75.75.75h11.5a.75.75 0 0 0 .75-.75V6.25a.75.75 0 0 0-.75-.75h-2.129l.021-.033A2.248 2.248 0 0 1 13.75 6.5Zm0-3h-3.5a.75.75 0 0 0 0 1.5h3.5a.75.75 0 0 0 0-1.5Z" fill="#212121"/>
</svg>
